src/assets/img/logo.svg

<svg width="119" height="43" viewBox="0 0 119 43" fill="none" xmlns="http://www.w3.org/2000/svg">
<path d="M3.12 37.37C3.02 37.01 2.88 36.56 2.7 36.02C2.52 35.5 2.32 34.97 2.1 34.43C1.9 33.89 1.68 33.42 1.44 33.02L1.53 32.84C1.79 32.76 2.04 32.69 2.28 32.63C3.88 31.29 5.39 29.91 6.81 28.49C8.25 27.05 9.57 25.65 10.77 24.29C11.99 22.93 13.05 21.69 13.95 20.57C14.87 19.43 15.6 18.49 16.14 17.75C16.7 17.01 17.04 16.55 17.16 16.37C17.24 16.23 17.31 16.12 17.37 16.04C17.43 15.94 17.47 15.87 17.49 15.83C17.45 15.83 17.37 15.83 17.25 15.83C17.15 15.81 16.98 15.8 16.74 15.8C16.32 15.8 15.61 15.83 14.61 15.89C13.61 15.95 12.43 16.04 11.07 16.16C9.71 16.26 8.28 16.39 6.78 16.55C5.28 16.71 3.82 16.9 2.4 17.12L1.77 11.9C3.57 11.64 5.41 11.43 7.29 11.27C9.19 11.09 11.01 10.96 12.75 10.88C14.51 10.78 16.08 10.73 17.46 10.73C18.12 10.73 18.82 10.76 19.56 10.82C20.3 10.88 20.98 11.01 21.6 11.21C22.24 11.41 22.76 11.74 23.16 12.2C23.56 12.64 23.76 13.25 23.76 14.03C23.76 15.21 23.2 16.6 22.08 18.2C20.92 19.9 19.66 21.56 18.3 23.18C16.96 24.78 15.62 26.28 14.28 27.68C12.96 29.08 11.74 30.32 10.62 31.4C11.34 31.36 12.07 31.34 12.81 31.34C13.57 31.32 14.34 31.31 15.12 31.31C16.9 31.31 18.59 31.37 20.19 31.49C21.79 31.59 23.19 31.75 24.39 31.97L23.49 37.13C22.13 36.91 20.63 36.75 18.99 36.65C17.37 36.57 15.72 36.53 14.04 36.53C12.1 36.53 10.18 36.6 8.28 36.74C6.38 36.88 4.66 37.09 3.12 37.37ZM33.8813 37.46C32.6013 37.46 31.5413 37.23 30.7013 36.77C29.8813 36.33 29.2213 35.72 28.7213 34.94C28.2413 34.16 27.8813 33.29 27.6413 32.33C27.4213 31.35 27.2713 30.34 27.1913 29.3C27.1313 28.24 27.1013 27.22 27.1013 26.24C27.1013 25.12 27.1313 23.98 27.1913 22.82C27.2713 21.66 27.3513 20.39 27.4313 19.01L32.9213 18.68C32.8613 19.1 32.7713 19.73 32.6513 20.57C32.5313 21.41 32.4213 22.37 32.3213 23.45C32.2213 24.53 32.1713 25.66 32.1713 26.84C32.1713 28.78 32.3413 30.22 32.6813 31.16C33.0213 32.08 33.5313 32.54 34.2113 32.54C35.5713 32.54 36.5713 31.55 37.2113 29.57C37.8513 27.59 38.1713 24.46 38.1713 20.18V18.8L40.7213 18.74L43.8113 18.68C43.5313 20.56 43.3213 22.29 43.1813 23.87C43.0413 25.45 42.9513 26.78 42.9113 27.86C42.8713 28.92 42.8513 29.63 42.8513 29.99C42.8513 30.91 42.9313 31.57 43.0913 31.97C43.2513 32.35 43.5313 32.54 43.9313 32.54C44.1313 32.54 44.3513 32.5 44.5913 32.42C44.8313 32.34 45.1113 32.2 45.4313 32L45.2213 37.16C44.4613 37.28 43.8013 37.34 43.2413 37.34C42.2813 37.34 41.4913 37.16 40.8713 36.8C40.2713 36.44 39.7913 35.96 39.4313 35.36C38.8113 36.02 38.0413 36.53 37.1213 36.89C36.2213 37.27 35.1413 37.46 33.8813 37.46ZM53.7548 37.37C52.6548 37.37 51.7448 37.13 51.0248 36.65C50.3248 36.19 49.7648 35.55 49.3448 34.73C48.9448 33.91 48.6448 32.97 48.4448 31.91C48.2648 30.85 48.1448 29.72 48.0848 28.52C48.0448 27.3 48.0248 26.08 48.0248 24.86C48.0248 23.8 48.0548 22.64 48.1148 21.38C48.1748 20.1 48.2448 18.81 48.3248 17.51C48.4248 16.19 48.5248 14.95 48.6248 13.79C48.7448 12.63 48.8548 11.62 48.9548 10.76L54.3848 10.82C54.2248 11.84 54.0748 13 53.9348 14.3C53.7948 15.58 53.6748 16.88 53.5748 18.2C53.4948 19.52 53.4248 20.74 53.3648 21.86C53.3248 22.98 53.3048 23.87 53.3048 24.53C53.3048 26.35 53.3348 27.78 53.3948 28.82C53.4748 29.86 53.5848 30.6 53.7248 31.04C53.8848 31.46 54.0948 31.67 54.3548 31.67C54.6948 31.67 55.0648 31.46 55.4648 31.04C55.8648 30.6 56.2548 30.11 56.6348 29.57L59.1848 34.64C58.5648 35.32 57.8248 35.94 56.9648 36.5C56.1048 37.08 55.0348 37.37 53.7548 37.37ZM67.6123 37.37C66.5123 37.37 65.6023 37.13 64.8823 36.65C64.1823 36.19 63.6223 35.55 63.2023 34.73C62.8023 33.91 62.5023 32.97 62.3023 31.91C62.1223 30.85 62.0023 29.72 61.9423 28.52C61.9023 27.3 61.8823 26.08 61.8823 24.86C61.8823 23.8 61.9123 22.64 61.9723 21.38C62.0323 20.1 62.1023 18.81 62.1823 17.51C62.2823 16.19 62.3823 14.95 62.4823 13.79C62.6023 12.63 62.7123 11.62 62.8123 10.76L68.2423 10.82C68.0823 11.84 67.9323 13 67.7923 14.3C67.6523 15.58 67.5323 16.88 67.4323 18.2C67.3523 19.52 67.2823 20.74 67.2223 21.86C67.1823 22.98 67.1623 23.87 67.1623 24.53C67.1623 26.35 67.1923 27.78 67.2523 28.82C67.3323 29.86 67.4423 30.6 67.5823 31.04C67.7423 31.46 67.9523 31.67 68.2123 31.67C68.5523 31.67 68.9223 31.46 69.3223 31.04C69.7223 30.6 70.1123 30.11 70.4923 29.57L73.0423 34.64C72.4223 35.32 71.6823 35.94 70.8223 36.5C69.9623 37.08 68.8923 37.37 67.6123 37.37ZM75.8297 37.19C75.7497 36.23 75.6797 35 75.6197 33.5C75.5797 32 75.5597 30.37 75.5597 28.61C75.5597 27.05 75.5697 25.44 75.5897 23.78C75.6297 22.12 75.6797 20.49 75.7397 18.89C75.8197 17.27 75.8997 15.76 75.9797 14.36C76.0797 12.94 76.1897 11.7 76.3097 10.64L81.5297 11C81.2497 13.04 81.0297 15.11 80.8697 17.21C80.7297 19.29 80.6397 21.41 80.5997 23.57C81.7197 22.79 83.0197 21.97 84.4997 21.11C85.9997 20.23 87.7997 19.24 89.8997 18.14L92.7197 22.85C90.5597 23.53 88.6497 24.31 86.9897 25.19C85.3297 26.05 83.9697 26.92 82.9097 27.8C82.7097 27.94 82.5797 28.04 82.5197 28.1C82.4597 28.16 82.4297 28.2 82.4297 28.22C82.4297 28.34 82.7597 28.56 83.4197 28.88C84.2997 29.34 85.2097 29.79 86.1497 30.23C87.0897 30.67 88.1397 31.12 89.2997 31.58C90.4597 32.02 91.7897 32.49 93.2897 32.99L91.2197 37.43C89.3997 36.89 87.5797 36.21 85.7597 35.39C83.9397 34.57 82.2897 33.74 80.8097 32.9C80.8297 33.58 80.8597 34.27 80.8997 34.97C80.9597 35.67 81.0097 36.37 81.0497 37.07L75.8297 37.19ZM94.4555 15.62C94.4555 15.44 94.4455 15.26 94.4255 15.08C94.4255 14.88 94.4255 14.66 94.4255 14.42C94.4255 13.78 94.4455 13.1 94.4855 12.38C94.5255 11.66 94.5655 11.05 94.6055 10.55L99.9455 10.64C99.8855 11.32 99.8155 12.09 99.7355 12.95C99.6755 13.81 99.6355 14.7 99.6155 15.62H94.4555ZM94.3355 37.1C94.2755 35.86 94.2355 34.54 94.2155 33.14C94.1955 31.72 94.1855 30.3 94.1855 28.88C94.1855 27.02 94.2055 25.21 94.2455 23.45C94.2855 21.69 94.3355 20.09 94.3955 18.65L99.5555 18.62C99.4755 19.54 99.4255 20.68 99.4055 22.04C99.3855 23.38 99.3755 24.79 99.3755 26.27C99.3755 27.73 99.3855 29.17 99.4055 30.59C99.4255 32.01 99.4455 33.3 99.4655 34.46C99.5055 35.6 99.5355 36.48 99.5555 37.1H94.3355ZM111.456 37.37C110.256 37.37 109.306 37.11 108.606 36.59C107.906 36.09 107.396 35.39 107.076 34.49C106.756 33.59 106.546 32.56 106.446 31.4C106.366 30.24 106.326 29.02 106.326 27.74C106.326 26.42 106.376 25.05 106.476 23.63C105.136 23.81 103.846 24.04 102.606 24.32L101.676 19.61C103.336 19.17 105.106 18.85 106.986 18.65C107.126 17.63 107.276 16.56 107.436 15.44C107.596 14.3 107.776 13.1 107.976 11.84L113.136 12.29C112.896 13.33 112.686 14.37 112.506 15.41C112.326 16.43 112.166 17.42 112.026 18.38C113.146 18.38 114.196 18.41 115.176 18.47C116.176 18.51 117.096 18.59 117.936 18.71L117.336 23.42C116.636 23.34 115.906 23.29 115.146 23.27C114.406 23.23 113.656 23.21 112.896 23.21C112.436 23.21 111.976 23.22 111.516 23.24C111.396 24.7 111.316 25.95 111.276 26.99C111.256 28.03 111.246 28.77 111.246 29.21C111.246 30.31 111.306 31.1 111.426 31.58C111.566 32.06 111.786 32.3 112.086 32.3C112.426 32.3 112.806 32.19 113.226 31.97C113.646 31.73 114.056 31.41 114.456 31.01C114.876 30.61 115.226 30.18 115.506 29.72L117.816 34.55C115.836 36.43 113.716 37.37 111.456 37.37Z" fill="#160442"/>
<circle cx="97" cy="9" r="7" fill="#642DFB"/>
</svg>

<svg fill="none" height="43" viewBox="0 0 119 43" width="119" xmlns="http://www.w3.org/2000/svg"><path d="m3.12 37.37c-.1-.36-.24-.81-.42-1.35-.18-.52-.38-1.05-.6-1.59-.2-.54-.42-1.01-.66-1.41l.09-.18c.26-.08.51-.15.75-.21 1.6-1.34 3.11-2.72 4.53-4.14 1.44-1.44 2.76-2.84 3.96-4.2 1.22-1.36 2.28-2.6 3.18-3.72.92-1.14 1.65-2.08 2.19-2.82.56-.74.9-1.2 1.02-1.38.08-.14.15-.25.21-.33.06-.1.1-.17.12-.21-.04 0-.12 0-.24 0-.1-.02-.27-.03-.51-.03-.42 0-1.13.03-2.13.09s-2.18.15-3.54.27c-1.36.1-2.79.23-4.29.39s-2.96.35-4.38.57l-.63-5.22c1.8-.26 3.64-.47 5.52-.63 1.9-.18 3.72-.31 5.46-.39 1.76-.1 3.33-.15 4.71-.15.66 0 1.36.03 2.1.09s1.42.19 2.04.39c.64.2 1.16.53 1.56.99.4.44.6 1.05.6 1.83 0 1.18-.56 2.57-1.68 4.17-1.16 1.7-2.42 3.36-3.78 4.98-1.34 1.6-2.68 3.1-4.02 4.5-1.32 1.4-2.54 2.64-3.66 3.72.72-.04 1.45-.06 2.19-.06.76-.02 1.53-.03 2.31-.03 1.78 0 3.47.06 5.07.18 1.6.1 3 .26 4.2.48l-.9 5.16c-1.36-.22-2.86-.38-4.5-.48-1.62-.08-3.27-.12-4.95-.12-1.94 0-3.86.07-5.76.21s-3.62.35-5.16.63zm30.7613.09c-1.28 0-2.34-.23-3.18-.69-.82-.44-1.48-1.05-1.98-1.83-.48-.78-.84-1.65-1.08-2.61-.22-.98-.37-1.99-.45-3.03-.06-1.06-.09-2.08-.09-3.06 0-1.12.03-2.26.09-3.42.08-1.16.16-2.43.24-3.81l5.49-.33c-.06.42-.15 1.05-.27 1.89s-.23 1.8-.33 2.88-.15 2.21-.15 3.39c0 1.94.17 3.38.51 4.32.34.92.85 1.38 1.53 1.38 1.36 0 2.36-.99 3-2.97s.96-5.11.96-9.39v-1.38l2.55-.06 3.09-.06c-.28 1.88-.49 3.61-.63 5.19s-.23 2.91-.27 3.99c-.04 1.06-.06 1.77-.06 2.13 0 .92.08 1.58.24 1.98.16.38.44.57.84.57.2 0 .42-.04.66-.12s.52-.22.84-.42l-.21 5.16c-.76.12-1.42.18-1.98.18-.96 0-1.75-.18-2.37-.54-.6-.36-1.08-.84-1.44-1.44-.62.66-1.39 1.17-2.31 1.53-.9.38-1.98.57-3.24.57zm19.8735-.09c-1.1 0-2.01-.24-2.73-.72-.7-.46-1.26-1.1-1.68-1.92-.4-.82-.7-1.76-.9-2.82-.18-1.06-.3-2.19-.36-3.39-.04-1.22-.06-2.44-.06-3.66 0-1.06.03-2.22.09-3.48.06-1.28.13-2.57.21-3.87.1-1.32.2-2.56.3-3.72.12-1.16.23-2.17.33-3.03l5.43.06c-.16 1.02-.31 2.18-.45 3.48-.14 1.28-.26 2.58-.36 3.9-.08 1.32-.15 2.54-.21 3.66-.04 1.12-.06 2.01-.06 2.67 0 1.82.03 3.25.09 4.29.08 1.04.19 1.78.33 2.22.16.42.37.63.63.63.34 0 .71-.21 1.11-.63.4-.44.79-.93 1.17-1.47l2.55 5.07c-.62.68-1.36 1.3-2.22 1.86-.86.58-1.93.87-3.21.87zm13.8575 0c-1.1 0-2.01-.24-2.73-.72-.7-.46-1.26-1.1-1.68-1.92-.4-.82-.7-1.76-.9-2.82-.18-1.06-.3-2.19-.36-3.39-.04-1.22-.06-2.44-.06-3.66 0-1.06.03-2.22.09-3.48.06-1.28.13-2.57.21-3.87.1-1.32.2-2.56.3-3.72.12-1.16.23-2.17.33-3.03l5.43.06c-.16 1.02-.31 2.18-.45 3.48-.14 1.28-.26 2.58-.36 3.9-.08 1.32-.15 2.54-.21 3.66-.04 1.12-.06 2.01-.06 2.67 0 1.82.03 3.25.09 4.29.08 1.04.19 1.78.33 2.22.16.42.37.63.63.63.34 0 .71-.21 1.11-.63.4-.44.79-.93 1.17-1.47l2.55 5.07c-.62.68-1.36 1.3-2.22 1.86-.86.58-1.93.87-3.21.87zm8.2174-.18c-.08-.96-.15-2.19-.21-3.69-.04-1.5-.06-3.13-.06-4.89 0-1.56.01-3.17.03-4.83.04-1.66.09-3.29.15-4.89.08-1.62.16-3.13.24-4.53.1-1.42.21-2.66.33-3.72l5.22.36c-.28 2.04-.5 4.11-.66 6.21-.14 2.08-.23 4.2-.27 6.36 1.12-.78 2.42-1.6 3.9-2.46 1.5-.88 3.3-1.87 5.4-2.97l2.82 4.71c-2.16.68-4.07 1.46-5.73 2.34-1.66.86-3.02 1.73-4.08 2.61-.2.14-.33.24-.39.3s-.09.1-.09.12c0 .12.33.34.99.66.88.46 1.79.91 2.73 1.35s1.99.89 3.15 1.35c1.16.44 2.49.91 3.99 1.41l-2.07 4.44c-1.82-.54-3.64-1.22-5.46-2.04s-3.47-1.65-4.95-2.49c.02.68.05 1.37.09 2.07.06.7.11 1.4.15 2.1zm18.6258-21.57c0-.18-.01-.36-.03-.54 0-.2 0-.42 0-.66 0-.64.02-1.32.06-2.04s.08-1.33.12-1.83l5.34.09c-.06.68-.13 1.45-.21 2.31-.06.86-.1 1.75-.12 2.67zm-.12 21.48c-.06-1.24-.1-2.56-.12-3.96-.02-1.42-.03-2.84-.03-4.26 0-1.86.02-3.67.06-5.43s.09-3.36.15-4.8l5.16-.03c-.08.92-.13 2.06-.15 3.42-.02 1.34-.03 2.75-.03 4.23 0 1.46.01 2.9.03 4.32s.04 2.71.06 3.87c.04 1.14.07 2.02.09 2.64zm17.1205.27c-1.2 0-2.15-.26-2.85-.78-.7-.5-1.21-1.2-1.53-2.1s-.53-1.93-.63-3.09c-.08-1.16-.12-2.38-.12-3.66 0-1.32.05-2.69.15-4.11-1.34.18-2.63.41-3.87.69l-.93-4.71c1.66-.44 3.43-.76 5.31-.96.14-1.02.29-2.09.45-3.21.16-1.14.34-2.34.54-3.6l5.16.45c-.24 1.04-.45 2.08-.63 3.12-.18 1.02-.34 2.01-.48 2.97 1.12 0 2.17.03 3.15.09 1 .04 1.92.12 2.76.24l-.6 4.71c-.7-.08-1.43-.13-2.19-.15-.74-.04-1.49-.06-2.25-.06-.46 0-.92.01-1.38.03-.12 1.46-.2 2.71-.24 3.75-.02 1.04-.03 1.78-.03 2.22 0 1.1.06 1.89.18 2.37.14.48.36.72.66.72.34 0 .72-.11 1.14-.33.42-.24.83-.56 1.23-.96.42-.4.77-.83 1.05-1.29l2.31 4.83c-1.98 1.88-4.1 2.82-6.36 2.82z" fill="#160442"/><circle cx="97" cy="9" fill="#642dfb" r="7"/></svg>
